svg/livro.svg

<svg width="30" height="22" viewBox="0 0 30 22" fill="none" xmlns="http://www.w3.org/2000/svg">
<path d="M15.9375 2.93857C17.1637 1.80818 19.2788 1.48498 21.7725 1.70482C24.0863 1.90826 26.4656 2.56287 28.125 3.1699V19.4498C26.4037 18.8756 24.1744 18.3145 21.9619 18.1209C19.9106 17.9388 17.6906 18.0569 15.9375 18.9281V2.93857ZM15 1.45545C13.1531 0.0658364 10.4756 -0.140882 8.03813 0.0723989C5.19938 0.323415 2.33438 1.1749 0.549375 1.88529C0.385592 1.95047 0.246704 2.05551 0.149289 2.18787C0.051875 2.32024 4.98214e-05 2.47434 0 2.63177L0 20.6786C4.34287e-05 20.8159 0.0394446 20.951 0.114595 21.0714C0.189744 21.1919 0.298241 21.294 0.430145 21.3682C0.56205 21.4425 0.713146 21.4866 0.869594 21.4966C1.02604 21.5065 1.18284 21.482 1.32563 21.4251C2.97938 20.7689 5.64375 19.9797 8.22563 19.7517C10.8675 19.5187 13.0819 19.8944 14.2688 21.1905C14.3566 21.2863 14.4679 21.3637 14.5945 21.4168C14.721 21.4699 14.8596 21.4975 15 21.4975C15.1404 21.4975 15.279 21.4699 15.4055 21.4168C15.5321 21.3637 15.6434 21.2863 15.7313 21.1905C16.9181 19.8944 19.1325 19.5187 21.7725 19.7517C24.3563 19.9797 27.0225 20.7689 28.6744 21.4251C28.8172 21.482 28.974 21.5065 29.1304 21.4966C29.2869 21.4866 29.438 21.4425 29.5699 21.3682C29.7018 21.294 29.8103 21.1919 29.8854 21.0714C29.9606 20.951 30 20.8159 30 20.6786V2.63177C30 2.47434 29.9481 2.32024 29.8507 2.18787C29.7533 2.05551 29.6144 1.95047 29.4506 1.88529C27.6656 1.1749 24.8006 0.323415 21.9619 0.0723989C19.5244 -0.142523 16.8469 0.0658364 15 1.45545Z" fill="#5C49C7"/>
</svg>

<svg width="30" height="22" fill="none" xmlns="http://www.w3.org/2000/svg"><path d="M15.94 2.94c1.22-1.13 3.34-1.46 5.83-1.24 2.32.2 4.7.86 6.36 1.47v16.28a27.89 27.89 0 0 0-6.17-1.33c-2.05-.18-4.27-.06-6.02.8V2.95ZM15 1.46C13.15.06 10.48-.14 8.04.07A28.4 28.4 0 0 0 .54 1.9a.91.91 0 0 0-.4.3.75.75 0 0 0-.14.44v18.05c0 .14.04.27.11.4.08.11.19.21.32.29a1.03 1.03 0 0 0 .9.06 26.4 26.4 0 0 1 6.9-1.68c2.64-.23 4.85.14 6.04 1.44.09.1.2.17.32.23a1.05 1.05 0 0 0 .82 0 .93.93 0 0 0 .32-.23c1.19-1.3 3.4-1.67 6.04-1.44 2.59.23 5.25 1.02 6.9 1.68a1.06 1.06 0 0 0 .9-.06.87.87 0 0 0 .32-.3.74.74 0 0 0 .11-.4V2.64a.75.75 0 0 0-.15-.44.91.91 0 0 0-.4-.3A28.4 28.4 0 0 0 21.96.07c-2.44-.21-5.11 0-6.96 1.39Z" fill="#5C49C7"/></svg>
